X: 34877
T: Roberta's
R: waltz
M: 3/4
K: Bminor
A,B,|:C2 DC CB,|B,A, A,2 A,B,|CA, DC B,A,|B,3 B,B,C|DB, FE DC|
B,A, A,2 A,B,|1 CA, DC B,A,|B,4 A,B,:|2 CA, DC FD|B6||
|:B3 c d2|c2 d Bfd|g2 fd b2|ag fe dc|B2 cd fc|
df cd fg|1 fe dc BA|B6:|2 fe dc Bd/f/|b6||

